src/actions/24/distribute-remove-overlaps.svg

<svg xmlns="http://www.w3.org/2000/svg" viewBox="0 0 24 24">
    <path d="M4 4v4h4V4H4zm5 0v16h6V4H9zm7 0v16h4V4h-4zM5 5h2v2H5V5zm5 0h4v14h-4V5zm7 0h2v14h-2V5zM4 9v11h4V9H4zm1 1h2v9H5v-9z" style="fill:currentColor;fill-opacity:1;stroke:none;color:#050505;opacity:.7"/>
</svg>

<svg xmlns="http://www.w3.org/2000/svg" viewBox="0 0 24 24">
  <defs id="defs3051">
    <style type="text/css" id="current-color-scheme">
      .ColorScheme-Text {
        color:#363636;
      }
      </style>
  </defs>
 <path style="fill:currentColor;fill-opacity:1;stroke:none" 
     d="M 4 4 L 4 8 L 8 8 L 8 4 L 4 4 z M 9 4 L 9 20 L 15 20 L 15 4 L 9 4 z M 16 4 L 16 20 L 20 20 L 20 4 L 16 4 z M 5 5 L 7 5 L 7 7 L 5 7 L 5 5 z M 10 5 L 14 5 L 14 19 L 10 19 L 10 5 z M 17 5 L 19 5 L 19 19 L 17 19 L 17 5 z M 4 9 L 4 20 L 8 20 L 8 9 L 4 9 z M 5 10 L 7 10 L 7 19 L 5 19 L 5 10 z "
     class="ColorScheme-Text"
     />
</svg>
